Numix-GalliumOS/64/mimetypes/application-rss.svg

<svg xmlns="http://www.w3.org/2000/svg" xmlns:xlink="http://www.w3.org/1999/xlink" width="64px" height="64px" viewBox="0 0 64 64" version="1.1">
<g id="surface1">
<path style=" stroke:none;fill-rule:nonzero;fill:rgb(100%,39.215686%,0.392157%);fill-opacity:1;" d="M 10.671875 0 C 9.296875 0 8 1.355469 8 2.789062 L 8 61.210938 C 8 62.566406 9.375 64 10.671875 64 L 53.328125 64 C 54.625 64 56 62.566406 56 61.210938 L 56 18 L 38 0 Z M 10.671875 0 "/>
<path style=" stroke:none;fill-rule:nonzero;fill:rgb(0%,0%,0%);fill-opacity:0.196078;" d="M 42 18 L 56 32 L 56 18 Z M 42 18 "/>
<path style=" stroke:none;fill-rule:nonzero;fill:rgb(100%,100%,100%);fill-opacity:0.392157;" d="M 38 0 L 55.984375 18 L 40.757812 18 C 39.410156 18 38 16.574219 38 15.226562 Z M 38 0 "/>
<path style=" stroke:none;fill-rule:nonzero;fill:rgb(100%,100%,100%);fill-opacity:1;" d="M 18.101562 44.925781 C 18.101562 44.0625 18.398438 43.339844 18.996094 42.757812 C 19.585938 42.167969 20.308594 41.867188 21.167969 41.867188 C 22.007812 41.867188 22.71875 42.167969 23.300781 42.757812 C 23.894531 43.339844 24.1875 44.0625 24.1875 44.925781 C 24.1875 45.761719 23.894531 46.472656 23.300781 47.074219 C 22.71875 47.65625 22.007812 47.941406 21.167969 47.941406 C 20.308594 47.941406 19.585938 47.65625 18.996094 47.074219 C 18.398438 46.492188 18.101562 45.769531 18.101562 44.925781 M 17.921875 31.121094 L 17.921875 36.207031 C 24.417969 36.207031 29.699219 41.488281 29.699219 48 L 34.800781 48 C 34.800781 38.675781 27.230469 31.121094 17.921875 31.121094 Z M 17.929688 20 L 17.929688 25.617188 C 30.265625 25.617188 40.277344 35.648438 40.277344 47.992188 L 45.921875 47.992188 C 45.921875 32.53125 33.375 20 17.929688 20 Z M 17.929688 20 "/>
</g>
</svg>

<svg xmlns="http://www.w3.org/2000/svg" viewBox="0 0 64 64">
 <g>
  <path d="m 10.672 0 c -1.375 0 -2.672 1.355 -2.672 2.789 l 0 58.42 c 0 1.355 1.375 2.789 2.672 2.789 l 42.656 0 c 1.297 0 2.672 -1.434 2.672 -2.789 l 0 -43.21 l -18 -18 m -27.328 0" style="fill:#ff6301;fill-opacity:1;stroke:none;fill-rule:nonzero"/>
  <path d="m 42 18 l 14 14 l 0 -14 m -14 0" style="fill:#000;fill-opacity:0.196;stroke:none;fill-rule:nonzero"/>
  <path d="m 38 0 l 17.984 18 l -15.227 0 c -1.348 0 -2.758 -1.426 -2.758 -2.773 m 0 -15.227" style="fill:#fff;fill-opacity:0.392;stroke:none;fill-rule:nonzero"/>
  <path d="m 18.1 44.926 c 0 -0.863 0.297 -1.586 0.895 -2.168 c 0.59 -0.59 1.313 -0.891 2.172 -0.891 c 0.84 0 1.551 0.301 2.133 0.891 c 0.594 0.582 0.887 1.305 0.887 2.168 c 0 0.836 -0.293 1.547 -0.887 2.148 c -0.582 0.582 -1.293 0.867 -2.133 0.867 c -0.859 0 -1.582 -0.285 -2.172 -0.867 c -0.598 -0.582 -0.895 -1.305 -0.895 -2.148 m -0.18 -13.805 l 0 5.086 c 6.496 0 11.777 5.281 11.777 11.793 l 5.102 0 c 0 -9.324 -7.57 -16.879 -16.879 -16.879 m 0.008 -11.121 l 0 5.617 c 12.336 0 22.348 10.03 22.348 22.375 l 5.645 0 c 0 -15.461 -12.547 -27.992 -27.992 -27.992 m 0 0" style="fill:#fff;fill-opacity:1;stroke:none;fill-rule:nonzero"/>
 </g>
</svg>
